svg/300/rounded/counter_7.svg

<svg xmlns="http://www.w3.org/2000/svg" width="48" height="48" viewBox="0 -960 960 960"><path d="M540.385-626.846 458.77-316.308q-2.846 10.923 4.089 19.423 6.935 8.5 17.601 8.5 7.847 0 13.924-4.346 6.077-4.347 8.077-12.039l81.692-310.769q.616-3.384 1.5-7.077.885-3.692.885-7.077 0-18.23-14.154-30.383Q558.231-672.23 540-672.23H396.539q-9.904 0-16.298 6.398-6.394 6.398-6.394 16.307 0 9.91 6.394 16.294 6.394 6.385 16.298 6.385h143.846Zm-60.318 526.845q-78.221 0-147.397-29.92-69.176-29.92-120.989-81.71-51.814-51.791-81.747-120.936-29.933-69.146-29.933-147.366 0-78.836 29.92-148.204 29.92-69.369 81.71-120.682 51.791-51.314 120.936-81.247 69.146-29.933 147.366-29.933 78.836 0 148.204 29.92 69.369 29.92 120.682 81.21 51.314 51.291 81.247 120.629 29.933 69.337 29.933 148.173 0 78.221-29.92 147.397-29.92 69.176-81.21 120.989-51.291 51.814-120.629 81.747-69.337 29.933-148.173 29.933ZM480-145.385q139.692 0 237.154-97.769Q814.615-340.923 814.615-480q0-139.692-97.461-237.154Q619.692-814.615 480-814.615q-139.077 0-236.846 97.461Q145.385-619.692 145.385-480q0 139.077 97.769 236.846T480-145.385ZM480-480Z"/></svg>

<svg xmlns="http://www.w3.org/2000/svg" width="48" height="48" viewBox="0 -960 960 960"><path d="m540.39-626.85-81.62 310.54q-2.85 10.92 4.09 19.42 6.93 8.5 17.6 8.5 7.85 0 13.92-4.34 6.08-4.35 8.08-12.04l81.69-310.77q.62-3.38 1.5-7.08.89-3.69.89-7.07 0-18.23-14.16-30.39-14.15-12.15-32.38-12.15H396.54q-9.91 0-16.3 6.4-6.39 6.4-6.39 16.31 0 9.9 6.39 16.29 6.39 6.38 16.3 6.38h143.85ZM480.07-100q-78.22 0-147.4-29.92t-120.99-81.71q-51.81-51.79-81.75-120.94Q100-401.71 100-479.93q0-78.84 29.92-148.21t81.71-120.68q51.79-51.31 120.94-81.25Q401.71-860 479.93-860q78.84 0 148.21 29.92t120.68 81.21q51.31 51.29 81.25 120.63Q860-558.9 860-480.07q0 78.22-29.92 147.4t-81.21 120.99q-51.29 51.81-120.63 81.75Q558.9-100 480.07-100Zm-.07-45.39q139.69 0 237.15-97.76 97.46-97.77 97.46-236.85 0-139.69-97.46-237.15-97.46-97.46-237.15-97.46-139.08 0-236.85 97.46-97.76 97.46-97.76 237.15 0 139.08 97.76 236.85 97.77 97.76 236.85 97.76ZM480-480Z"/></svg>
